X: 5684
T: Byrne's Mill
R: slip jig
M: 9/8
K: Dmajor
|:e|dcA G2 A FDD|GFG A2 G ABc|dcA G2 A F2 D|d[Ac]d edc d2:|
|:B|A2 d dAd fga|g2 d afd =cAG|A2 d dAd fga|g2 f edc d2:|
e|f2 g e2 f d=cA|dcA =cAG F2 A|f2 d edc Abc|d[Ac]d edc d2 e|
f2 g e2 f d=cA|dcA G2 A FDD|f2 d edc d=cA|dcA GE[CA] D2||

